X: 744
T: Old Joe
C:Traditional
B: jims roots
M:4/4
L:1/8
Q: 1/4=100
K:C
V:1 
%N:Arranged by the String Beings  TablEdited by Jeff Hoelter
%Q:420
AB |: "C"c2 cd cBAB | cBcd cBcd | "G"eg2e g2 eg | agab aged |
"C"c2 cd cBAB | cBcd cBcd | "G"eg2e g2 eg |[1 aged "C"c2 AB:|
[2 "G"aged "C"c3G, |: A,3 C3 D2 | EDEF EDCG, | A,3 C3 D2 | "F7"^D8 |
"Am"A,3C3 D2 | EDEF EDEG | "C"c2 cd cBAB | "G"cA E2 "C"C4:|
% abcbook-tune_id 6298c279938fa9f852a730bd


% abcbook-boost 0
% abcbook-tablature 
% abcbook-transpose 
% abcbook-lastupdated 1654178425922
% abcbook-soundfonts 
% abcbook-repeats 1


